X:1
T: Lady Baird's New Reel
C:
R:Reel
Q: 232
K:F
M:4/4
L:1/8
|:C|F2 AF EG GB|AF Af dF cF|BG AF EG GB|Ac GB AF FC|
F2 AF EG GB|AF Af dF cF|BG AF EG GB|Ac GB AF F2|
f2 ca ge ce|fe fd ec Af|dB AG cA GF|E1/2F1/2G CB AF Fc|
f2 ca ge ce|fe fd ec Ac|dD gd ec bg|af ce f1/2f1/2f f:|
